docs/.vitepress/dist/rocket.svg

<?xml version="1.0" standalone="no"?><!DOCTYPE svg PUBLIC "-//W3C//DTD SVG 1.1//EN" "http://www.w3.org/Graphics/SVG/1.1/DTD/svg11.dtd"><svg t="1770780378196" class="icon" viewBox="0 0 1024 1024" version="1.1" xmlns="http://www.w3.org/2000/svg" p-id="23587" xmlns:xlink="http://www.w3.org/1999/xlink" width="200" height="200"><path d="M672.63412 954.357909l-138.898389-138.898389a1850.524151 1850.524151 0 0 1-116.262611 69.317972l-278.354472-278.354472a1556.587077 1556.587077 0 0 1 68.465031-117.115553l-138.045447-138.045447a32.805477 32.805477 0 0 1 0-46.41975l115.967361-115.967361a262.443816 262.443816 0 0 1 332.877175-31.493258c206.936949-146.902926 417.876166-192.043262 478.959963-130.893853s16.009073 272.088626-130.893853 478.959964a262.443816 262.443816 0 0 1-31.493258 332.877175L718.988259 954.292298a32.805477 32.805477 0 0 1-46.354139 0.065611zM440.666593 212.068381a131.221908 131.221908 0 0 0-185.580584 0L162.31212 304.84227a32.805477 32.805477 0 0 0 0 46.41975l69.580417 69.580417z m487.128527-115.967361c-29.524929-29.524929-112.42437-19.880119-210.315913 21.61881l188.697104 188.697103c41.597345-97.891543 51.406182-180.659762 21.717226-210.315913z m-51.537404 273.204013L654.591108 147.638425a921.63707 921.63707 0 0 0-216.155288 159.467423 1580.305437 1580.305437 0 0 0-218.123616 287.704033l208.774055 208.774056a1720.48324 1720.48324 0 0 0 287.704033-218.123617 921.63707 921.63707 0 0 0 159.56584-216.155287zM811.827759 768.810131a131.221908 131.221908 0 0 0 0-185.580583l-208.774055 208.774055 69.580416 69.580417a32.805477 32.805477 0 0 0 46.41975 0z m-324.774222-231.967527a131.221908 131.221908 0 1 1 185.580583 0 131.221908 131.221908 0 0 1-185.482167 0z m139.193639-139.193639a65.610954 65.610954 0 1 0 0 92.773889 65.610954 65.610954 0 0 0 0.098416-92.773889z" fill="#1E59E4" p-id="23588"></path><path d="M0.121842 1023.872715s-4.855211-180.725373 46.386945-231.967528a131.221908 131.221908 0 1 1 185.580583 185.580583C180.748798 1028.826342 0.121842 1023.872715 0.121842 1023.872715z m185.580584-185.580584a65.610954 65.610954 0 0 0-92.773889 0c-25.621078 25.621078-46.41975 139.193639-46.41975 139.193639s113.572561-20.798672 139.193639-46.41975a65.610954 65.610954 0 0 0-0.098417-92.675472z" fill="#FF5A06" p-id="23589"></path></svg>

<svg xmlns="http://www.w3.org/2000/svg" width="200" height="200" class="icon" viewBox="0 0 1024 1024"><path fill="#1e59e4" d="M672.634 954.358 533.736 815.46a1851 1851 0 0 1-116.263 69.317L139.12 606.423a1557 1557 0 0 1 68.465-117.116L69.538 351.262a32.805 32.805 0 0 1 0-46.42l115.968-115.967a262.444 262.444 0 0 1 332.877-31.493C725.32 10.479 936.259-34.662 997.343 26.488s16.009 272.088-130.894 478.96a262.444 262.444 0 0 1-31.493 332.877L718.988 954.292a32.805 32.805 0 0 1-46.354.066m-231.967-742.29a131.22 131.22 0 0 0-185.581 0l-92.774 92.774a32.805 32.805 0 0 0 0 46.42l69.58 69.58zM927.795 96.101C898.27 66.576 815.371 76.221 717.48 117.72l188.697 188.697c41.598-97.892 51.406-180.66 21.718-210.316zm-51.537 273.204L654.59 147.638a921.6 921.6 0 0 0-216.155 159.468A1580.3 1580.3 0 0 0 220.312 594.81l208.774 208.774A1720.5 1720.5 0 0 0 716.79 585.46a921.6 921.6 0 0 0 159.566-216.155zm-64.43 399.505a131.22 131.22 0 0 0 0-185.58L603.054 792.004l69.58 69.58a32.805 32.805 0 0 0 46.42 0zM487.054 536.843a131.222 131.222 0 1 1 185.58 0 131.22 131.22 0 0 1-185.482 0zm139.193-139.194a65.611 65.611 0 1 0 0 92.774 65.61 65.61 0 0 0 .099-92.774z"/><path fill="#ff5a06" d="M.122 1023.873s-4.855-180.726 46.387-231.968a131.222 131.222 0 1 1 185.58 185.58C180.75 1028.827.122 1023.874.122 1023.874m185.58-185.58a65.61 65.61 0 0 0-92.773 0c-25.622 25.62-46.42 139.193-46.42 139.193s113.572-20.799 139.193-46.42a65.61 65.61 0 0 0-.098-92.675z"/></svg>
